icons/svg/ticket-confirmation.svg

﻿<?xml version="1.0" encoding="utf-8"?>
<!DOCTYPE svg PUBLIC "-//W3C//DTD SVG 1.1//EN" "http://www.w3.org/Graphics/SVG/1.1/DTD/svg11.dtd">
<svg xmlns="http://www.w3.org/2000/svg" xmlns:xlink="http://www.w3.org/1999/xlink" version="1.1" baseProfile="full" width="24" height="24" viewBox="0 0 24.00 24.00" enable-background="new 0 0 24.00 24.00" xml:space="preserve">
	<path fill="#000000" fill-opacity="1" stroke-width="1.33333" stroke-linejoin="miter" d="M 12.9975,8.50125L 11.0013,8.50125L 11.0013,6.49875L 12.9975,6.49875L 12.9975,8.50125 Z M 12.9975,12.9975L 11.0013,12.9975L 11.0013,11.0012L 12.9975,11.0012L 12.9975,12.9975 Z M 12.9975,17.5L 11.0013,17.5L 11.0013,15.4975L 12.9975,15.4975L 12.9975,17.5 Z M 22.0025,10L 22.0025,6.00125C 22.0025,4.8875 21.0987,3.99875 20,3.99875L 3.99875,3.99875C 2.9,3.99875 2.01125,4.8875 2.01125,6.00125L 2.01125,10C 3.11,10 3.99875,10.8987 3.99875,12.0025C 3.99875,13.1 3.11,13.9987 2.0025,13.9987L 2.0025,17.9975C 2.0025,19.1012 2.9,20 3.99875,20L 20,20C 21.0987,20 22.0025,19.1012 22.0025,17.9975L 22.0025,13.9987C 20.8987,13.9987 20,13.1 20,12.0025C 20,10.8987 20.8987,10 22.0025,10 Z "/>
</svg>

<svg xmlns="http://www.w3.org/2000/svg" version="1.1" baseProfile="full" width="24" height="24" viewBox="0 0 24.00 24.00" xml:space="preserve"><path fill="#000" fill-opacity="1" stroke-width="1.333" stroke-linejoin="miter" d="M12.998 8.5H11v-2H13v2zm0 4.498H11V11H13V13zm0 4.502H11v-2.002H13V17.5zm9.005-7.5V6c0-1.112-.904-2-2.003-2H4c-1.1 0-1.99.888-1.99 2v4c1.1 0 1.99.9 1.99 2.002C4 13.1 3.11 14 2 14v3.997C2.002 19.1 2.9 20 4 20h16c1.1 0 2.003-.9 2.003-2.003V14C20.9 14 20 13.1 20 12 20 10.9 20.9 10 22.003 10z"/></svg>
